svg/fluentui-system-icons/ic_fluent_save_copy_20_regular.svg

<svg width="20" height="20" viewBox="0 0 20 20" fill="none" xmlns="http://www.w3.org/2000/svg">
<path d="M9.5 6.5C9.5 6.22386 9.27614 6 9 6C8.72386 6 8.5 6.22386 8.5 6.5V8.5H6.5C6.22386 8.5 6 8.72386 6 9C6 9.27614 6.22386 9.5 6.5 9.5H8.5V11.5C8.5 11.7761 8.72386 12 9 12C9.27614 12 9.5 11.7761 9.5 11.5V9.5H11.5C11.7761 9.5 12 9.27614 12 9C12 8.72386 11.7761 8.5 11.5 8.5H9.5V6.5ZM4.5 2C3.11929 2 2 3.11929 2 4.5V13.5C2 14.8807 3.11929 16 4.5 16H13.5C14.8807 16 16 14.8807 16 13.5V4.5C16 3.11929 14.8807 2 13.5 2H4.5ZM3 4.5C3 3.67157 3.67157 3 4.5 3H13.5C14.3284 3 15 3.67157 15 4.5V13.5C15 14.3284 14.3284 15 13.5 15H4.5C3.67157 15 3 14.3284 3 13.5V4.5ZM7.50027 17.9998C6.54662 17.9998 5.68205 17.6184 5.05078 16.9998H14.5003C15.881 16.9998 17.0003 15.8805 17.0003 14.4998V5.05029C17.6189 5.68156 18.0003 6.54613 18.0003 7.49978V14.4998C18.0003 16.4328 16.4333 17.9998 14.5003 17.9998H7.50027Z" fill="#212121"/>
</svg>

<svg xmlns="http://www.w3.org/2000/svg" width="20" height="20"><path d="M9.5 6.5a.5.5 0 0 0-1 0v2h-2a.5.5 0 0 0 0 1h2v2a.5.5 0 0 0 1 0v-2h2a.5.5 0 0 0 0-1h-2v-2ZM4.5 2A2.5 2.5 0 0 0 2 4.5v9A2.5 2.5 0 0 0 4.5 16h9a2.5 2.5 0 0 0 2.5-2.5v-9A2.5 2.5 0 0 0 13.5 2h-9ZM3 4.5A1.5 1.5 0 0 1 4.5 3h9A1.5 1.5 0 0 1 15 4.5v9a1.5 1.5 0 0 1-1.5 1.5h-9A1.5 1.5 0 0 1 3 13.5v-9ZM7.5 18a3.489 3.489 0 0 1-2.45-1h9.45a2.5 2.5 0 0 0 2.5-2.5V5.05c.619.632 1 1.496 1 2.45v7a3.5 3.5 0 0 1-3.5 3.5h-7Z"/></svg>
